optimized/20/solid/arrows-right-left.svg

<svg xmlns="http://www.w3.org/2000/svg" viewBox="0 0 20 20">
  <path fill-rule="evenodd" d="M13.2004 2.23966C12.9186 2.5432 12.9361 3.01775 13.2397 3.2996L15.3401 5.25L6.75 5.25C6.33579 5.25 6 5.58579 6 6C6 6.41422 6.33579 6.75 6.75 6.75L15.3401 6.75L13.2397 8.70041C12.9361 8.98226 12.9186 9.45681 13.2004 9.76034C13.4823 10.0639 13.9568 10.0815 14.2603 9.7996L17.7603 6.5496C17.9132 6.40769 18 6.20855 18 6C18 5.79145 17.9132 5.59232 17.7603 5.45041L14.2603 2.20041C13.9568 1.91856 13.4823 1.93613 13.2004 2.23966ZM6.79959 10.2397C6.51774 9.93613 6.04319 9.91856 5.73966 10.2004L2.23966 13.4504C2.08684 13.5923 2 13.7915 2 14C2 14.2086 2.08684 14.4077 2.23966 14.5496L5.73966 17.7996C6.04319 18.0815 6.51774 18.0639 6.79959 17.7603C7.08145 17.4568 7.06387 16.9823 6.76034 16.7004L4.6599 14.75H13.25C13.6642 14.75 14 14.4142 14 14C14 13.5858 13.6642 13.25 13.25 13.25H4.6599L6.76034 11.2996C7.06387 11.0177 7.08145 10.5432 6.79959 10.2397Z" clip-rule="evenodd"/>
</svg>

<svg xmlns="http://www.w3.org/2000/svg" viewBox="0 0 20 20" fill="currentColor" aria-hidden="true">
  <path fill-rule="evenodd" d="M13.2 2.24a.75.75 0 00.04 1.06l2.1 1.95H6.75a.75.75 0 000 1.5h8.59l-2.1 1.95a.75.75 0 101.02 1.1l3.5-3.25a.75.75 0 000-1.1l-3.5-3.25a.75.75 0 00-1.06.04zm-6.4 8a.75.75 0 00-1.06-.04l-3.5 3.25a.75.75 0 000 1.1l3.5 3.25a.75.75 0 101.02-1.1l-2.1-1.95h8.59a.75.75 0 000-1.5H4.66l2.1-1.95a.75.75 0 00.04-1.06z" clip-rule="evenodd"/>
</svg>
